apps/scalable/sublime-text.svg

<svg xmlns="http://www.w3.org/2000/svg" style="isolation:isolate" width="256" height="256"><defs><filter id="a" width="400%" height="400%" x="-200%" y="-200%" color-interpolation-filters="sRGB" filterUnits="objectBoundingBox"><feGaussianBlur xmlns="http://www.w3.org/2000/svg" in="SourceGraphic" stdDeviation="4.294"/><feOffset xmlns="http://www.w3.org/2000/svg" dy="4" result="pf_100_offsetBlur"/><feFlood xmlns="http://www.w3.org/2000/svg" flood-opacity=".4"/><feComposite xmlns="http://www.w3.org/2000/svg" in2="pf_100_offsetBlur" operator="in" result="pf_100_dropShadow"/><feBlend xmlns="http://www.w3.org/2000/svg" in="SourceGraphic" in2="pf_100_dropShadow"/></filter></defs><path fill="#4D4D4D" d="M165.685 11.947c74.055 0 84.639 10.557 84.639 84.544v59.251c0 73.986-10.584 84.543-84.639 84.543h-75.37c-74.055 0-84.639-10.557-84.639-84.543V96.491c0-73.987 10.584-84.544 84.639-84.544h75.37z" filter="url(#a)"/><linearGradient id="b" x1=".551" x2=".637" y1=".695" y2=".409" gradientTransform="matrix(111.495 0 0 74.33 72.373 124.337)" gradientUnits="userSpaceOnUse"><stop offset="0%" stop-color="#ff9700"/><stop offset="53%" stop-color="#f48e00"/><stop offset="100%" stop-color="#ce6e00"/></linearGradient><path fill="url(#b)" d="M183.868 126.652c0-1.698-1.255-2.677-2.794-2.19L75.167 158.056c-1.542.489-2.794 2.265-2.794 3.96v34.334c0 1.698 1.252 2.68 2.794 2.191l105.907-33.591c1.539-.49 2.794-2.265 2.794-3.963v-34.335z"/><linearGradient id="c" x1=".449" x2=".363" y1=".305" y2=".591" gradientTransform="matrix(111.494 0 0 74.33 72.132 54.141)" gradientUnits="userSpaceOnUse"><stop offset="0%" stop-color="#ff9700"/><stop offset="53%" stop-color="#f48e00"/><stop offset="100%" stop-color="#ce6e00"/></linearGradient><path fill="url(#c)" d="M72.132 126.155c0 1.698 1.255 2.678 2.794 2.191l105.907-33.594c1.542-.489 2.794-2.265 2.794-3.96V56.458c0-1.698-1.252-2.681-2.794-2.191L74.926 87.858c-1.539.49-2.794 2.265-2.794 3.963v34.334z"/><path fill="#FF9800" d="M72.373 125.749c0 1.698 1.252 3.473 2.794 3.963l105.907 33.595c1.543.489 2.794-.493 2.794-2.188v-34.335c0-1.695-1.251-3.471-2.794-3.96L75.167 89.229c-1.542-.49-2.794.489-2.794 2.187v34.333z"/><g opacity=".4"><linearGradient id="d" x1=".517" x2=".517" y2="1"><stop offset="0%" stop-color="#fff"/><stop offset="12.5%" stop-opacity=".098" stop-color="#fff"/><stop offset="92.5%" stop-opacity=".098"/><stop offset="100%" stop-opacity=".498"/></linearGradient><path fill="none" stroke="url(#d)" stroke-linecap="round" stroke-linejoin="round" stroke-width="4.077" d="M165.685 11.947c74.055 0 84.639 10.557 84.639 84.544v59.251c0 73.986-10.584 84.543-84.639 84.543h-75.37c-74.055 0-84.639-10.557-84.639-84.543V96.491c0-73.987 10.584-84.544 84.639-84.544h75.37z" vector-effect="non-scaling-stroke"/></g></svg>

<svg xmlns="http://www.w3.org/2000/svg" style="isolation:isolate" width="256" height="256" viewBox="0 0 256 256">
 <defs>
  <filter id="8oyGH9UmnPOIEBCkfhK6zvT7db80LPwA" width="400%" height="400%" x="-200%" y="-200%" color-interpolation-filters="sRGB" filterUnits="objectBoundingBox">
   <feGaussianBlur xmlns="http://www.w3.org/2000/svg" in="SourceGraphic" stdDeviation="4.294"/>
   <feOffset xmlns="http://www.w3.org/2000/svg" dx="0" dy="4" result="pf_100_offsetBlur"/>
   <feFlood xmlns="http://www.w3.org/2000/svg" flood-opacity=".4"/>
   <feComposite xmlns="http://www.w3.org/2000/svg" in2="pf_100_offsetBlur" operator="in" result="pf_100_dropShadow"/>
   <feBlend xmlns="http://www.w3.org/2000/svg" in="SourceGraphic" in2="pf_100_dropShadow" mode="normal"/>
  </filter>
 </defs>
 <g filter="url(#8oyGH9UmnPOIEBCkfhK6zvT7db80LPwA)">
  <path fill="#4D4D4D" d="M 165.685 11.947 C 239.74 11.947 250.324 22.504 250.324 96.491 L 250.324 155.742 C 250.324 229.728 239.74 240.285 165.685 240.285 L 90.315 240.285 C 16.26 240.285 5.676 229.728 5.676 155.742 L 5.676 96.491 C 5.676 22.504 16.26 11.947 90.315 11.947 L 165.685 11.947 Z"/>
 </g>
 <g>
  <linearGradient id="_lgradient_3" x1=".551" x2=".637" y1=".695" y2=".409" gradientTransform="matrix(111.495,0,0,74.33,72.373,124.337)" gradientUnits="userSpaceOnUse">
   <stop offset="0%" style="stop-color:rgb(255,151,0)"/>
   <stop offset="53%" style="stop-color:rgb(244,142,0)"/>
   <stop offset="100%" style="stop-color:rgb(206,110,0)"/>
  </linearGradient>
  <path fill="url(#_lgradient_3)" d="M 183.868 126.652 C 183.868 124.954 182.613 123.975 181.074 124.462 L 75.167 158.056 C 73.625 158.545 72.373 160.321 72.373 162.016 L 72.373 196.35 C 72.373 198.048 73.625 199.03 75.167 198.541 L 181.074 164.95 C 182.613 164.46 183.868 162.685 183.868 160.987 L 183.868 126.652 Z"/>
  <linearGradient id="_lgradient_4" x1=".449" x2=".363" y1=".305" y2=".591" gradientTransform="matrix(111.494,0,0,74.33,72.132,54.141)" gradientUnits="userSpaceOnUse">
   <stop offset="0%" style="stop-color:rgb(255,151,0)"/>
   <stop offset="53%" style="stop-color:rgb(244,142,0)"/>
   <stop offset="100%" style="stop-color:rgb(206,110,0)"/>
  </linearGradient>
  <path fill="url(#_lgradient_4)" d="M 72.132 126.155 C 72.132 127.853 73.387 128.833 74.926 128.346 L 180.833 94.752 C 182.375 94.263 183.627 92.487 183.627 90.792 L 183.627 56.458 C 183.627 54.76 182.375 53.777 180.833 54.267 L 74.926 87.858 C 73.387 88.348 72.132 90.123 72.132 91.821 L 72.132 126.155 Z"/>
  <path fill="#FF9800" d="M 72.373 125.749 C 72.373 127.447 73.625 129.222 75.167 129.712 L 181.074 163.307 C 182.617 163.796 183.868 162.814 183.868 161.119 L 183.868 126.784 C 183.868 125.089 182.617 123.313 181.074 122.824 L 75.167 89.229 C 73.625 88.739 72.373 89.718 72.373 91.416 L 72.373 125.749 Z"/>
 </g>
 <g opacity=".4">
  <linearGradient id="_lgradient_5" x1=".517" x2=".517" y1="0" y2="1">
   <stop offset="0%" style="stop-color:rgb(255,255,255)"/>
   <stop offset="12.5%" stop-opacity=".098" style="stop-color:rgb(255,255,255)"/>
   <stop offset="92.5%" stop-opacity=".098" style="stop-color:rgb(0,0,0)"/>
   <stop offset="100%" stop-opacity=".498" style="stop-color:rgb(0,0,0)"/>
  </linearGradient>
  <path fill="none" stroke="url(#_lgradient_5)" stroke-linecap="round" stroke-linejoin="round" stroke-width="4.077" d="M 165.685 11.947 C 239.74 11.947 250.324 22.504 250.324 96.491 L 250.324 155.742 C 250.324 229.728 239.74 240.285 165.685 240.285 L 90.315 240.285 C 16.26 240.285 5.676 229.728 5.676 155.742 L 5.676 96.491 C 5.676 22.504 16.26 11.947 90.315 11.947 L 165.685 11.947 Z" vector-effect="non-scaling-stroke"/>
 </g>
</svg>
